dist/img/favicon.svg

<svg width="176" height="34" viewBox="0 0 176 34" fill="none" xmlns="http://www.w3.org/2000/svg">
<path d="M3.47001 23.2698C2.71001 23.2698 2.13001 23.0598 1.73001 22.6398C1.33 22.2198 1.13 21.6298 1.13 20.8698V3.97984C1.13 2.37983 1.91 1.57983 3.47001 1.57983C5.01001 1.57983 5.78 2.37983 5.78 3.97984V20.8698C5.78 22.4698 5.01001 23.2698 3.47001 23.2698Z" fill="#FCB500"/>
<path d="M11.9263 23.2698C10.4063 23.2698 9.64625 22.4998 9.64625 20.9598V10.3098C9.64625 8.78984 10.3863 8.02984 11.8663 8.02984C13.3463 8.02984 14.0863 8.78984 14.0863 10.3098V10.4298C14.5863 9.62983 15.2563 9.01983 16.0963 8.59983C16.9363 8.17983 17.8763 7.96983 18.9163 7.96983C20.6563 7.96983 21.9563 8.47983 22.8163 9.49983C23.6763 10.4998 24.1063 12.0498 24.1063 14.1498V20.9598C24.1063 22.4998 23.3463 23.2698 21.8263 23.2698C21.1063 23.2698 20.5463 23.0698 20.1463 22.6698C19.7663 22.2698 19.5763 21.6998 19.5763 20.9598V14.3598C19.5763 13.3398 19.3863 12.6098 19.0063 12.1698C18.6263 11.7098 18.0663 11.4798 17.3263 11.4798C16.3663 11.4798 15.5963 11.7798 15.0163 12.3798C14.4563 12.9798 14.1763 13.7798 14.1763 14.7798V20.9598C14.1763 22.4998 13.4263 23.2698 11.9263 23.2698Z" fill="#FCB500"/>
<path d="M33.2181 23.3298C31.9381 23.3298 30.8081 23.0198 29.8281 22.3998C28.8681 21.7598 28.1181 20.8698 27.5781 19.7298C27.0381 18.5698 26.7681 17.1998 26.7681 15.6198C26.7681 14.0398 27.0381 12.6798 27.5781 11.5398C28.1181 10.3998 28.8681 9.51984 29.8281 8.89984C30.8081 8.27983 31.9381 7.96983 33.2181 7.96983C34.1981 7.96983 35.0981 8.17983 35.9181 8.59983C36.7381 9.01983 37.3581 9.57983 37.778 10.2798V3.88983C37.778 2.34983 38.528 1.57983 40.028 1.57983C41.548 1.57983 42.3081 2.34983 42.3081 3.88983V20.9598C42.3081 22.4998 41.5581 23.2698 40.0581 23.2698C38.5581 23.2698 37.8081 22.4998 37.8081 20.9598V20.8698C37.4081 21.6298 36.7881 22.2298 35.9481 22.6698C35.1281 23.1098 34.2181 23.3298 33.2181 23.3298ZM34.5681 19.9398C35.528 19.9398 36.3081 19.5898 36.9081 18.8898C37.528 18.1898 37.8381 17.0998 37.8381 15.6198C37.8381 14.1598 37.528 13.0898 36.9081 12.4098C36.3081 11.7098 35.528 11.3598 34.5681 11.3598C33.6081 11.3598 32.8281 11.7098 32.2281 12.4098C31.628 13.0898 31.3281 14.1598 31.3281 15.6198C31.3281 17.0998 31.628 18.1898 32.2281 18.8898C32.8281 19.5898 33.6081 19.9398 34.5681 19.9398Z" fill="#FCB500"/>
<path d="M52.8786 23.3298C51.2986 23.3298 49.9186 23.0198 48.7386 22.3998C47.5786 21.7598 46.6786 20.8698 46.0386 19.7298C45.3986 18.5698 45.0786 17.1998 45.0786 15.6198C45.0786 14.0598 45.3986 12.7098 46.0386 11.5698C46.6786 10.4098 47.5786 9.51984 48.7386 8.89984C49.9186 8.27983 51.2986 7.96983 52.8786 7.96983C54.4586 7.96983 55.8286 8.27983 56.9886 8.89984C58.1686 9.51984 59.0786 10.4098 59.7186 11.5698C60.3786 12.7098 60.7086 14.0598 60.7086 15.6198C60.7086 17.1998 60.3786 18.5698 59.7186 19.7298C59.0786 20.8698 58.1686 21.7598 56.9886 22.3998C55.8286 23.0198 54.4586 23.3298 52.8786 23.3298ZM52.8786 19.9398C53.8386 19.9398 54.6186 19.5898 55.2186 18.8898C55.8386 18.1898 56.1486 17.0998 56.1486 15.6198C56.1486 14.1598 55.8386 13.0898 55.2186 12.4098C54.6186 11.7098 53.8386 11.3598 52.8786 11.3598C51.9186 11.3598 51.1386 11.7098 50.5386 12.4098C49.9386 13.0898 49.6386 14.1598 49.6386 15.6198C49.6386 17.0998 49.9386 18.1898 50.5386 18.8898C51.1386 19.5898 51.9186 19.9398 52.8786 19.9398Z" fill="#FCB500"/>
<path d="M79.6135 23.2698C78.8535 23.2698 78.2735 23.0598 77.8735 22.6398C77.4735 22.2198 77.2735 21.6298 77.2735 20.8698V5.68984H71.9635C70.6635 5.68984 70.0135 5.04983 70.0135 3.76983C70.0135 2.48983 70.6635 1.84983 71.9635 1.84983H87.2335C88.5335 1.84983 89.1835 2.48983 89.1835 3.76983C89.1835 5.04983 88.5335 5.68984 87.2335 5.68984H81.9235V20.8698C81.9235 21.6298 81.7235 22.2198 81.3235 22.6398C80.9435 23.0598 80.3735 23.2698 79.6135 23.2698Z" fill="#FCB500"/>
<path d="M90.7656 23.2698C89.2056 23.2698 88.4256 22.4998 88.4256 20.9598V10.3098C88.4256 8.78984 89.1656 8.02984 90.6456 8.02984C92.1256 8.02984 92.8656 8.78984 92.8656 10.3098V10.8498C93.5856 9.06983 95.0756 8.10983 97.3356 7.96983C97.8356 7.92983 98.2156 8.05983 98.4756 8.35983C98.7556 8.63983 98.9056 9.10983 98.9256 9.76983C98.9656 10.3898 98.8356 10.8798 98.5356 11.2398C98.2556 11.5998 97.7756 11.8198 97.0956 11.8998L96.4056 11.9598C94.1656 12.1798 93.0456 13.3198 93.0456 15.3798V20.9598C93.0456 22.4998 92.2856 23.2698 90.7656 23.2698Z" fill="#FCB500"/>
<path d="M105.622 23.3298C104.522 23.3298 103.552 23.1198 102.712 22.6998C101.872 22.2798 101.202 21.7098 100.702 20.9898C100.222 20.2698 99.9824 19.4598 99.9824 18.5598C99.9824 17.4998 100.262 16.6498 100.822 16.0098C101.382 15.3698 102.292 14.9198 103.552 14.6598C104.812 14.3798 106.482 14.2398 108.562 14.2398H109.642V13.7298C109.642 12.8498 109.442 12.2298 109.042 11.8698C108.642 11.4898 107.962 11.2998 107.002 11.2998C106.462 11.2998 105.872 11.3698 105.232 11.5098C104.592 11.6298 103.902 11.8398 103.162 12.1398C102.602 12.3798 102.132 12.3998 101.752 12.1998C101.372 11.9798 101.122 11.6598 101.002 11.2398C100.882 10.7998 100.912 10.3598 101.092 9.91983C101.292 9.47983 101.672 9.15983 102.232 8.95983C103.172 8.59983 104.052 8.34983 104.872 8.20983C105.712 8.04983 106.482 7.96983 107.182 7.96983C109.462 7.96983 111.162 8.48983 112.282 9.52983C113.402 10.5498 113.962 12.1398 113.962 14.2998V20.9598C113.962 22.4998 113.262 23.2698 111.862 23.2698C110.442 23.2698 109.732 22.4998 109.732 20.9598V20.7798C109.432 21.5598 108.922 22.1798 108.202 22.6398C107.502 23.0998 106.642 23.3298 105.622 23.3298ZM106.642 20.2998C107.482 20.2998 108.192 20.0098 108.772 19.4298C109.352 18.8498 109.642 18.0998 109.642 17.1798V16.5798H108.592C107.052 16.5798 105.962 16.7198 105.322 16.9998C104.682 17.2598 104.362 17.7198 104.362 18.3798C104.362 18.9398 104.552 19.3998 104.932 19.7598C105.332 20.1198 105.902 20.2998 106.642 20.2998Z" fill="#FCB500"/>
<path d="M123.435 23.2698C122.255 23.2698 121.395 22.6498 120.855 21.4098L116.325 10.9698C115.985 10.1898 115.975 9.50983 116.295 8.92983C116.615 8.32983 117.275 8.02984 118.275 8.02984C118.815 8.02984 119.255 8.15983 119.595 8.41983C119.935 8.65983 120.235 9.12984 120.495 9.82984L123.585 17.6298L126.765 9.79984C127.045 9.11983 127.355 8.65983 127.695 8.41983C128.035 8.15983 128.505 8.02984 129.105 8.02984C129.865 8.02984 130.405 8.32983 130.725 8.92983C131.045 9.50983 131.025 10.1798 130.665 10.9398L126.045 21.4098C125.525 22.6498 124.655 23.2698 123.435 23.2698Z" fill="#FCB500"/>
<path d="M140.519 23.3298C138.779 23.3298 137.279 23.0198 136.019 22.3998C134.779 21.7598 133.819 20.8698 133.139 19.7298C132.479 18.5698 132.149 17.2098 132.149 15.6498C132.149 14.1298 132.469 12.7998 133.109 11.6598C133.769 10.4998 134.659 9.59983 135.779 8.95983C136.919 8.29983 138.229 7.96983 139.709 7.96983C141.849 7.96983 143.549 8.64983 144.809 10.0098C146.069 11.3498 146.699 13.1698 146.699 15.4698C146.699 16.2298 146.229 16.6098 145.289 16.6098H136.469C136.629 17.7698 137.049 18.6198 137.729 19.1598C138.429 19.6798 139.389 19.9398 140.609 19.9398C141.089 19.9398 141.629 19.8898 142.229 19.7898C142.849 19.6698 143.439 19.4698 143.999 19.1898C144.579 18.9098 145.069 18.8598 145.469 19.0398C145.869 19.1998 146.139 19.4798 146.279 19.8798C146.439 20.2798 146.439 20.6998 146.279 21.1398C146.139 21.5598 145.809 21.9098 145.289 22.1898C144.589 22.5698 143.809 22.8498 142.949 23.0298C142.109 23.2298 141.299 23.3298 140.519 23.3298ZM139.889 10.9698C138.929 10.9698 138.149 11.2598 137.549 11.8398C136.969 12.4198 136.609 13.2298 136.469 14.2698H142.949C142.829 12.0698 141.809 10.9698 139.889 10.9698Z" fill="#FCB500"/>
<path d="M154.644 23.3298C151.104 23.3298 149.334 21.3598 149.334 17.4198V3.88983C149.334 2.34983 150.094 1.57983 151.614 1.57983C153.114 1.57983 153.864 2.34983 153.864 3.88983V17.2398C153.864 18.0598 154.034 18.6698 154.374 19.0698C154.734 19.4498 155.204 19.6398 155.784 19.6398C155.944 19.6398 156.094 19.6298 156.234 19.6098C156.394 19.5898 156.544 19.5798 156.684 19.5798C157.004 19.5598 157.224 19.6598 157.344 19.8798C157.484 20.0998 157.554 20.5498 157.554 21.2298C157.554 22.3898 157.064 23.0498 156.084 23.2098C155.884 23.2298 155.654 23.2498 155.394 23.2698C155.134 23.3098 154.884 23.3298 154.644 23.3298Z" fill="#FCB500"/>
<path d="M57 31.4998C57 30.6714 57.6716 29.9998 58.5 29.9998H172.5C173.328 29.9998 174 30.6714 174 31.4998C174 32.3283 173.328 32.9998 172.5 32.9998H58.5C57.6716 32.9998 57 32.3283 57 31.4998Z" fill="#FCB500"/>
</svg>

<svg width="176" height="34" fill="none" xmlns="http://www.w3.org/2000/svg"><path d="M3.47 23.27c-.76 0-1.34-.21-1.74-.63-.4-.42-.6-1.01-.6-1.77V3.98c0-1.6.78-2.4 2.34-2.4 1.54 0 2.31.8 2.31 2.4v16.89c0 1.6-.77 2.4-2.31 2.4zM11.926 23.27c-1.52 0-2.28-.77-2.28-2.31V10.31c0-1.52.74-2.28 2.22-2.28 1.48 0 2.22.76 2.22 2.28v.12c.5-.8 1.17-1.41 2.01-1.83.84-.42 1.78-.63 2.82-.63 1.74 0 3.04.51 3.9 1.53.86 1 1.29 2.55 1.29 4.65v6.81c0 1.54-.76 2.31-2.28 2.31-.72 0-1.28-.2-1.68-.6-.38-.4-.57-.97-.57-1.71v-6.6c0-1.02-.19-1.75-.57-2.19-.38-.46-.94-.69-1.68-.69-.96 0-1.73.3-2.31.9-.56.6-.84 1.4-.84 2.4v6.18c0 1.54-.75 2.31-2.25 2.31zM33.218 23.33c-1.28 0-2.41-.31-3.39-.93-.96-.64-1.71-1.53-2.25-2.67-.54-1.16-.81-2.53-.81-4.11 0-1.58.27-2.94.81-4.08.54-1.14 1.29-2.02 2.25-2.64.98-.62 2.11-.93 3.39-.93.98 0 1.88.21 2.7.63.82.42 1.44.98 1.86 1.68V3.89c0-1.54.75-2.31 2.25-2.31 1.52 0 2.28.77 2.28 2.31v17.07c0 1.54-.75 2.31-2.25 2.31s-2.25-.77-2.25-2.31v-.09c-.4.76-1.02 1.36-1.86 1.8-.82.44-1.73.66-2.73.66zm1.35-3.39c.96 0 1.74-.35 2.34-1.05.62-.7.93-1.79.93-3.27 0-1.46-.31-2.53-.93-3.21-.6-.7-1.38-1.05-2.34-1.05s-1.74.35-2.34 1.05c-.6.68-.9 1.75-.9 3.21 0 1.48.3 2.57.9 3.27.6.7 1.38 1.05 2.34 1.05zM52.879 23.33c-1.58 0-2.96-.31-4.14-.93a6.8 6.8 0 01-2.7-2.67c-.64-1.16-.96-2.53-.96-4.11 0-1.56.32-2.91.96-4.05a6.552 6.552 0 012.7-2.67c1.18-.62 2.56-.93 4.14-.93 1.58 0 2.95.31 4.11.93 1.18.62 2.09 1.51 2.73 2.67.66 1.14.99 2.49.99 4.05 0 1.58-.33 2.95-.99 4.11-.64 1.14-1.55 2.03-2.73 2.67-1.16.62-2.53.93-4.11.93zm0-3.39c.96 0 1.74-.35 2.34-1.05.62-.7.93-1.79.93-3.27 0-1.46-.31-2.53-.93-3.21-.6-.7-1.38-1.05-2.34-1.05s-1.74.35-2.34 1.05c-.6.68-.9 1.75-.9 3.21 0 1.48.3 2.57.9 3.27.6.7 1.38 1.05 2.34 1.05zM79.614 23.27c-.76 0-1.34-.21-1.74-.63-.4-.42-.6-1.01-.6-1.77V5.69h-5.31c-1.3 0-1.95-.64-1.95-1.92 0-1.28.65-1.92 1.95-1.92h15.27c1.3 0 1.95.64 1.95 1.92 0 1.28-.65 1.92-1.95 1.92h-5.31v15.18c0 .76-.2 1.35-.6 1.77-.38.42-.95.63-1.71.63zM90.766 23.27c-1.56 0-2.34-.77-2.34-2.31V10.31c0-1.52.74-2.28 2.22-2.28 1.48 0 2.22.76 2.22 2.28v.54c.72-1.78 2.21-2.74 4.47-2.88.5-.04.88.09 1.14.39.28.28.43.75.45 1.41.04.62-.09 1.11-.39 1.47-.28.36-.76.58-1.44.66l-.69.06c-2.24.22-3.36 1.36-3.36 3.42v5.58c0 1.54-.76 2.31-2.28 2.31zM105.622 23.33c-1.1 0-2.07-.21-2.91-.63-.84-.42-1.51-.99-2.01-1.71-.48-.72-.72-1.53-.72-2.43 0-1.06.28-1.91.84-2.55.56-.64 1.47-1.09 2.73-1.35 1.26-.28 2.93-.42 5.01-.42h1.08v-.51c0-.88-.2-1.5-.6-1.86-.4-.38-1.08-.57-2.04-.57-.54 0-1.13.07-1.77.21-.64.12-1.33.33-2.07.63-.56.24-1.03.26-1.41.06a1.57 1.57 0 01-.75-.96c-.12-.44-.09-.88.09-1.32.2-.44.58-.76 1.14-.96.94-.36 1.82-.61 2.64-.75.84-.16 1.61-.24 2.31-.24 2.28 0 3.98.52 5.1 1.56 1.12 1.02 1.68 2.61 1.68 4.77v6.66c0 1.54-.7 2.31-2.1 2.31-1.42 0-2.13-.77-2.13-2.31v-.18c-.3.78-.81 1.4-1.53 1.86-.7.46-1.56.69-2.58.69zm1.02-3.03c.84 0 1.55-.29 2.13-.87.58-.58.87-1.33.87-2.25v-.6h-1.05c-1.54 0-2.63.14-3.27.42-.64.26-.96.72-.96 1.38 0 .56.19 1.02.57 1.38.4.36.97.54 1.71.54zM123.435 23.27c-1.18 0-2.04-.62-2.58-1.86l-4.53-10.44c-.34-.78-.35-1.46-.03-2.04.32-.6.98-.9 1.98-.9.54 0 .98.13 1.32.39.34.24.64.71.9 1.41l3.09 7.8 3.18-7.83c.28-.68.59-1.14.93-1.38.34-.26.81-.39 1.41-.39.76 0 1.3.3 1.62.9.32.58.3 1.25-.06 2.01l-4.62 10.47c-.52 1.24-1.39 1.86-2.61 1.86zM140.519 23.33c-1.74 0-3.24-.31-4.5-.93-1.24-.64-2.2-1.53-2.88-2.67-.66-1.16-.99-2.52-.99-4.08 0-1.52.32-2.85.96-3.99.66-1.16 1.55-2.06 2.67-2.7 1.14-.66 2.45-.99 3.93-.99 2.14 0 3.84.68 5.1 2.04 1.26 1.34 1.89 3.16 1.89 5.46 0 .76-.47 1.14-1.41 1.14h-8.82c.16 1.16.58 2.01 1.26 2.55.7.52 1.66.78 2.88.78.48 0 1.02-.05 1.62-.15.62-.12 1.21-.32 1.77-.6.58-.28 1.07-.33 1.47-.15.4.16.67.44.81.84.16.4.16.82 0 1.26-.14.42-.47.77-.99 1.05-.7.38-1.48.66-2.34.84-.84.2-1.65.3-2.43.3zm-.63-12.36c-.96 0-1.74.29-2.34.87-.58.58-.94 1.39-1.08 2.43h6.48c-.12-2.2-1.14-3.3-3.06-3.3zM154.644 23.33c-3.54 0-5.31-1.97-5.31-5.91V3.89c0-1.54.76-2.31 2.28-2.31 1.5 0 2.25.77 2.25 2.31v13.35c0 .82.17 1.43.51 1.83.36.38.83.57 1.41.57.16 0 .31-.01.45-.03.16-.02.31-.03.45-.03.32-.02.54.08.66.3.14.22.21.67.21 1.35 0 1.16-.49 1.82-1.47 1.98-.2.02-.43.04-.69.06-.26.04-.51.06-.75.06zM57 31.5a1.5 1.5 0 011.5-1.5h114a1.5 1.5 0 010 3h-114a1.5 1.5 0 01-1.5-1.5z" fill="#FCB500"/></svg>
